www/assets/icons/photo_size_select_small.svg

<svg xmlns="http://www.w3.org/2000/svg" width="24" height="24" viewBox="0 0 24 24" fill='currentColor'><path d="M23 15h-2v2h2zm0-4h-2v2h2zm0 8h-2v2c1 0 2-1 2-2M15 3h-2v2h2zm8 4h-2v2h2zm-2-4v2h2c0-1-1-2-2-2M3 21h8v-6H1v4c0 1.1.9 2 2 2M3 7H1v2h2zm12 12h-2v2h2zm4-16h-2v2h2zm0 16h-2v2h2zM3 3C2 3 1 4 1 5h2zm0 8H1v2h2zm8-8H9v2h2zM7 3H5v2h2z"/></svg>

<svg width="24" height="24" viewBox="0 0 24 24" xmlns="http://www.w3.org/2000/svg" fill='currentColor'><path d="M23 15H21V17H23V15ZM23 11H21V13H23V11ZM23 19H21V21C22 21 23 20 23 19ZM15 3H13V5H15V3ZM23 7H21V9H23V7ZM21 3V5H23C23 4 22 3 21 3ZM3 21H11V15H1V19C1 20.1 1.9 21 3 21ZM3 7H1V9H3V7ZM15 19H13V21H15V19ZM19 3H17V5H19V3ZM19 19H17V21H19V19ZM3 3C2 3 1 4 1 5H3V3ZM3 11H1V13H3V11ZM11 3H9V5H11V3ZM7 3H5V5H7V3Z"/></svg>
